X:1
T:Banks of Newfoundland
T:Woods of Old Limerick, the
M:6/8
L:1/8
S:Jack Coen
R:jig
Z:Lesl
S: Brendan Taaffe <laughingrock:HOTMAIL.COM> irtrad-l 2001-11-20
K:G
GGA \
|: B2A BGD | GBd ~g3 | ded BGA | BAG AGA \
| B2A BGD | GBd g2g | ded BGA |1 BGG G2A :|2 BGG G2B ||
|: d2g gfg | e2a aga | bge dBG | BAG ABc \
|1 d2g gfg | e2a aga | bge dBA | BGF G2B \
:|2 B2A BGD | GBd g2g | ded BGA | BGG G3 |]
